public/favicon.svg

<svg xmlns="http://www.w3.org/2000/svg" xml:space="preserve"
  style="fill-rule:evenodd;clip-rule:evenodd;stroke-linejoin:round;stroke-miterlimit:2" viewBox="0 0 329 220">
  <path
    d="M0 114.188c0-15.692 2.509-29.492 7.528-41.402 5.018-11.91 11.839-22.213 20.462-30.906L1.908 7.528V0h99.769v8.376c-11.592 3.887-22.919 8.729-33.981 14.525-11.061 5.796-21.045 12.794-29.951 20.993-8.906 8.199-16.01 17.83-21.311 28.892-5.301 11.061-7.952 23.873-7.952 38.433 0 13.43 2.421 25.022 7.263 34.776 4.841 9.754 11.609 17.264 20.303 22.53 8.694 5.266 18.872 7.899 30.535 7.899 11.521 0 21.152-3.075 28.892-9.224 7.739-6.149 14.419-14.296 20.038-24.439 5.62-10.143 10.921-21.275 15.904-33.397a681.799 681.799 0 0 1 16.222-36.366c5.831-12.122 12.864-23.255 21.098-33.398 8.235-10.143 18.396-18.289 30.482-24.439 12.087-6.149 26.895-9.224 44.424-9.224 17.742 0 32.939 4.383 45.591 13.147 12.652 8.765 22.353 20.322 29.103 34.67 6.751 14.349 10.126 29.828 10.126 46.439 0 12.652-2.015 24.385-6.044 35.2-4.029 10.814-9.966 20.462-17.812 28.944l23.856 33.504v6.998h-95.634v-8.27c17.953-5.655 33.415-12.829 46.385-21.523 12.971-8.694 22.919-18.996 29.846-30.906s10.391-25.534 10.391-40.873c0-16.822-4.224-29.757-12.67-38.804-8.447-9.048-19.597-13.571-33.451-13.571-10.32 0-19.049 3.057-26.188 9.171-7.139 6.114-13.465 14.189-18.978 24.226-5.513 10.037-10.85 21.081-16.01 33.133a563.74 563.74 0 0 1-17.017 36.101c-6.184 12.016-13.553 23.042-22.106 33.079-8.552 10.037-18.943 18.113-31.171 24.227-12.228 6.114-27.071 9.171-44.53 9.171-19.791 0-36.967-4.665-51.528-13.995-14.56-9.33-25.834-21.983-33.821-37.957C3.994 152.074 0 134.12 0 114.188Z"
    style="fill:#ff1e52;fill-rule:nonzero" />
</svg>

<?xml version="1.0" encoding="UTF-8" standalone="no"?>
<!DOCTYPE svg PUBLIC "-//W3C//DTD SVG 1.1//EN" "http://www.w3.org/Graphics/SVG/1.1/DTD/svg11.dtd">
<svg width="100%" height="100%" viewBox="0 0 372 372" version="1.1" xmlns="http://www.w3.org/2000/svg" xmlns:xlink="http://www.w3.org/1999/xlink" xml:space="preserve" xmlns:serif="http://www.serif.com/" style="fill-rule:evenodd;clip-rule:evenodd;stroke-linejoin:round;stroke-miterlimit:2;">
    <g id="Artboard1" transform="matrix(1.1307,0,0,1.69091,0,0)">
        <rect x="0" y="0" width="329" height="220" style="fill:none;"/>
        <g transform="matrix(0.884409,0,0,0.591398,19.2522,44.9462)">
            <path d="M0,114.188C0,98.496 2.509,84.696 7.528,72.786C12.546,60.876 19.367,50.573 27.99,41.88L1.908,7.528L1.908,0L101.677,0L101.677,8.376C90.085,12.263 78.758,17.105 67.696,22.901C56.635,28.697 46.651,35.695 37.745,43.894C28.839,52.093 21.735,61.724 16.434,72.786C11.133,83.847 8.482,96.659 8.482,111.219C8.482,124.649 10.903,136.241 15.745,145.995C20.586,155.749 27.354,163.259 36.048,168.525C44.742,173.791 54.92,176.424 66.583,176.424C78.104,176.424 87.735,173.349 95.475,167.2C103.214,161.051 109.894,152.904 115.513,142.761C121.133,132.618 126.434,121.486 131.417,109.364C136.469,97.087 141.879,84.959 147.639,72.998C153.47,60.876 160.503,49.743 168.737,39.6C176.972,29.457 187.133,21.311 199.219,15.161C211.306,9.012 226.114,5.937 243.643,5.937C261.385,5.937 276.582,10.32 289.234,19.084C301.886,27.849 311.587,39.406 318.337,53.754C325.088,68.103 328.463,83.582 328.463,100.193C328.463,112.845 326.448,124.578 322.419,135.393C318.39,146.207 312.453,155.855 304.607,164.337L328.463,197.841L328.463,204.839L232.829,204.839L232.829,196.569C250.782,190.914 266.244,183.74 279.214,175.046C292.185,166.352 302.133,156.05 309.06,144.14C315.987,132.23 319.451,118.606 319.451,103.267C319.451,86.445 315.227,73.51 306.781,64.463C298.334,55.415 287.184,50.892 273.33,50.892C263.01,50.892 254.281,53.949 247.142,60.063C240.003,66.177 233.677,74.252 228.164,84.289C222.651,94.326 217.314,105.37 212.154,117.422C206.91,129.653 201.234,141.694 195.137,153.523C188.953,165.539 181.584,176.565 173.031,186.602C164.479,196.639 154.088,204.715 141.86,210.829C129.632,216.943 114.789,220 97.33,220C77.539,220 60.363,215.335 45.802,206.005C31.242,196.675 19.968,184.022 11.981,168.048C3.994,152.074 0,134.12 0,114.188Z" style="fill:rgb(255,30,82);fill-rule:nonzero;"/>
        </g>
    </g>
</svg>
